X:1
T:Bahn 'Luft' Hafen
T:Luft 'Bahn' Hafen
T:Port town of Empyrean capital island
%%score { 1 | 2 }
L:1/8
Q:1/4=93
M:3/4
K:Ab
V:1 treble nm="Piano" snm="Pno."
V:2 bass 
V:1
|:"^Andante Moderato" [DEAde]/[DE]/[DE]/[DE][DE]/[DEA]/[DA]/ [DA]/[DEA]/[DEA]/[DEA]/ | %1
 [DEA]/[DE]/[DE]/[DE][EG]/[EGB] [EAB][EG]/E/ | [DEGB]/[DE]/[DE]/[DE][EG]/[EGB] [EAB][EG]/E/ | %3
 [DEc]/[EA]/[EA]/[EA]/ E/A/[EA] [DEA]/[DE]/[DEA]/[DE]/ | %4
 [DEAde]/[DE]/[DE]/[DE][DE]/[DEA]/A/ [DA]/[EA]/[DEA]/[DEA]/ | %5
 [B,DEGB]/[DE]/[DE]/[B,DE][EG]/[DEG] [B,DEA][B,DEG] | %6
 [A,CEFA]/[DE]/[DE]/[DEA][DE]<[DEA][DEA]/[EA]/[EA]/ | %7
 !arpeggio![Aefb]4 b'/4f'/4e'/4c'/4f/4e/4B/4F/4 | [CEAc]2 [Ad][EA] [Ee]<[EA] | %9
 [EGBe]2 [Aa]G [Gg][EG] | [EAe]3/2E[EA]/[EA] E/[EA]E/ | [A,CEA]/E/A,/[CE]E/[EA] [CEA][EA] | %12
 [CEAc]>E [Dd]/-[DAd]/[EA] [CEe]/[EA]E/ | [EGBe]2 [Aa]2 [GBg][EG] | [Gcg]3/2EE<[EA][EA]E/ | %15
 [Aca]2 [Aca]/e/d/c/ A/E/C/A,/ | [C-E-Ac-]/[CEAc]/[Aa]/[Aa]/ [Ad-a]/[Ada]/A/A/ [Ee]<E | %17
 [EABe]2 [Aa]2 [GBg][EG] | [E-Be-]/[EAe]/a/[Aa]/ a/a/[Aa]/A[EA]A/ | [A,CEA]/a/a'/a/ a'<a E/A/[EA] | %20
 [E-Ae-]/[EAe]/a/[Aa]/ [d-a]/[da]/[Aa]/a/ c/[EA]A/ | %21
 [B,-E-GB]/[B,EA]/[Aa]/[GBa]/ a/a/A/e/ b/A/G/A/ | [A,CEG]/e/[ee']/[ee']/ [ee']/[ee']/[ee']<eA | %23
 [A,CF]/e/[Aa]/e/ a/[ee']/!8va(![aa']/e'/ [aa']/e''/a''!8va)! | %24
 !arpeggio![eae']/e'/e'/e'/ e'/e'/!arpeggio![Aa]/e'/ e'/e'/e'/e'/ | %25
 !arpeggio![Begb]/e'/e'/g/ g/g/e'/e'/ e'/e/[EGe] | %26
 [FAcf]/!8va(!e'/a'/e''/ a'/e'/a/e'/ a'/e''/a'/e'/ | %27
 [ac']/e'/a'/e''/ a'/a''/d''/c''/ a'/e'/a/e/!8va)! | %28
 !arpeggio![ee']>a a/a/!arpeggio![Aa]/e'/ e'/[ae']/a/a/ | %29
 !arpeggio![Begb]/e'/e'/g/ g/g/e'/e'/ [be']/b/[cb]/b/ | %30
 [FAcf]/!8va(!e'/a'/e''/ a'/e'/a/e'/ a<!8va)![DEA] | [FAf]A A[GBg] [EF]E | %32
 [Acfa]2 [Gg]/[Aa]/[Beb] E<B | [ded']2 [ceac']2 AE | [dad']2 [cc']/[dd']/ [eabe']2 [Aa] | %35
 [Aca]>e [Aa] [ceac']2 [Beb] |[K:Bb] [Bdgb]>A [Ba]/b/ [cgc']2 [faf'] | [efae']2 [dfbd']F BF | %38
 [ebe']E/B/ [dd']/[ee']/ [faf']2 [Bb] | [fgbf']>[ee'] [dd'] [dfbd']2 [cac'] | [dgbd']3 [cfac']3 | %41
 [fac'f']2 [Befb]2 F/4G/4A/4B/4c/4d/4e/4f/4 | [GBcg]3 [Acda]2 [Bb] | %43
 [fbf']3/2!mf!"_dim."b/4f/4 B/4F/4E/4B,/4 z E/4F/4B/4e/4!8va(!d'/4b/4e'/4b'/4 | f''6!8va)! | %45
[K:Ab] [G,EG]4- [G,EG]A | G4 ED | [A,DEG]4- [A,DEG]A | [B,G]3 B GD | [B,DEG]4- [B,DEG]A | %50
 [A,CEG]2 [A,_C=DF]2 [_G,=A,D]2 | [F,A,D]2 [G,B,E]2 [A,CF]2 | [B,DEA]4 PG2 :| %53
V:2
|:!mp! [D,,D,]/A,/A,<A,A,/A,/ A,<A, | [D,G,B,]3/2"_cresc."B,3/2G, [B,,B,][A,,A,] | %2
 [D,,D,]/A,/A,<A,A,/A,A,3/2 | F,2- F,/A,/A, A,A, | [D,,D,]/A,/A,<A,A,/A,A,/A,/A,/ | %5
 [D,,D,]4- [D,,D,]A,, | [D,,D,]3 A, A,A, |!mf! [F,A,EF]6 | [D,,D,]A,/[CE]/ D<A, A,,/A,/[D,A,] | %9
 [E,,E,]B,/EE/[A,B,E] [E,B,]G,, | [F,,C,E,]A, C, A,2 C, | [F,,F,]4- [F,,F,][C,A,] | %12
 [D,,D,] A,2 A,2 D, | [E,,E,]E,/[B,E][A,E]/[B,E] [B,,E,][E,G,] | [F,,C,E,A,] A,2 A, A,/A,/C, | %15
 [F,,F,]F,/[A,CE]/ C/E/[A,CE] C,E, | [D,,D,]>A, D/A,/E C,/A,/D, | %17
 [E,,E,]B,/E/ E,/E/[B,E] [B,,B,][E,G,] | [F,,C,A,]/A,[A,E][A,E]/E/A,/ E,[C,G,] | %19
 [F,,C,]A,/[CEA]E/[A,CEA] CC, |"_dim." [D,,D,]2 D/E/E [C,E,C]D, | %21
 [E,,E,]A,/[B,E][A,E]/B, [B,E][G,E]/A,/ | [F,,C,F,]3/2[EG]E/[A,EG] E/[A,E][A,E]/ | %23
 [F,,C,E,]A,/EE/[F,A,C] [F,A,CF]/C/[E,B,E] | [D,,D,]A,/[A,DE]A,/[D,A,DE] D,/[A,E]/[D,A,D]/E/ | %25
 [D,,D,]/D,[D,G,B,]D,/[G,B,E] [D,G,B,]B,, | [D,,D,]A,/[DE]D,/D,, D,/[A,DE]/D,/D,,/ | %27
 D,/[A,DE][A,DE]/ D,/A,/E,/A,,/ A,/[E,A,]/[E,A,]/A,,/ | [D,,D,]/D,[A,DE]A,/[A,DE] D,/A,/[DE]/D,/ | %29
 [D,,D,]E,/B,,/ G,,/[E,G,B,]/B,,/E,/ [E,A,D][F,G,E] | %30
 [D,,D,]D,/[A,DE][A,DE]/A,/D,/ D,,[B,,,B,,]/[C,,C,]/ | %31
!mf! [D,,A,,D,]/D,,/D,/A,,/ F,,/[D,,D,]/[E,,B,,E,]/"_cresc."E,,/ B,,/E,/B,,/E,,/ | %32
 [F,,,F,,]F,,/F,/ F,,/C,<[G,,E,G,]G,,/E,/G,,/ | [A,,,A,,]A,,/E,/ A,[E,A,DE] A,,/A,,/A,,, | %34
 [B,,,B,,]B,,/[F,B,]/ B,,/B,,,/[C,,C,] G,/E,/C,/C,,/ | %35
 [D,,D,]E,/[A,DE]/ D,/A,,/[E,,E,] E,/E,,/B,,/G,,/ | %36
[K:Bb]"_cresc." [G,,,G,,]G,,,/G,,/ D,/G,,/[A,,,A,,] A,,/F,/A,/A,,/ | %37
 [B,,,B,,]B,,/B,,,/ B,,[D,F,B,] B,/B,,/B,,, | [C,,C,]C,/G,/ C,[D,,D,] B,/D,D,,/ | %39
 [E,,E,]E,,/B,,/ E,/E,,/[F,,C,F,] [C,F,]/F,,/F,,/F,,,/ | %40
"_cresc." [G,,,G,,]G,,/D,,/ G,,[F,,,F,,]/C,,/ F,,/[F,A,]/C,/F,,/ | %41
 [D,,F,]D,,/D,/ [E,,E,]E,,/E,/ [F,B,]/E,/B,, |"_dim." [C,,C,]G,,/C,/ C,/C,,/[D,,D,] A,,/D,/D,, | %43
 [E,,E,]3 B,,/4E,/4F,/4B,/4 z2 | z6 |[K:Ab]!mp! [D,,D,]6- | [D,,D,]6 | [D,,D,]6- | %48
 [D,,D,]3 G, A,F, | [C,G,]4- [C,G,]E, | [F,,F,]2 [D,,D,]2 [_C,,_C,]2 | %51
 [B,,,B,,]2 [C,,C,]2 [D,,D,]2 | [E,,E,]6 :| %53

